app/assets/icons/icon-control.svg

<svg xmlns="http://www.w3.org/2000/svg" xmlns:xlink="http://www.w3.org/1999/xlink" width="28" height="23"><defs><path id="a" d="M11.107 2.83C10.733 1.228 9.24 0 7.467 0c-1.774 0-3.174 1.227-3.64 2.83H0v1.888h3.827c.373 1.604 1.866 2.83 3.64 2.83 1.773 0 3.173-1.226 3.64-2.83H28V2.83H11.107zm-3.64 1.888c-.56 0-.934-.377-.934-.944 0-.566.374-.943.934-.943s.933.377.933.943c0 .567-.373.944-.933.944zm13.066 2.83c1.774 0 3.174 1.227 3.64 2.832H28v1.887h-3.827c-.466 1.604-1.866 2.83-3.64 2.83-1.773 0-3.266-1.226-3.64-2.83H0V10.38h16.893c.467-1.605 1.867-2.831 3.64-2.831zm0 4.719c.56 0 .934-.378.934-.944s-.374-.944-.934-.944-.933.378-.933.944.373.944.933.944zm-13.066 2.83c1.773 0 3.173 1.227 3.64 2.831H28v1.887H11.107c-.467 1.604-1.867 2.831-3.64 2.831-1.774 0-3.267-1.227-3.64-2.83H0v-1.888h3.827c.466-1.604 1.866-2.83 3.64-2.83zm0 4.718c.56 0 .933-.377.933-.943s-.373-.944-.933-.944-.934.378-.934.944.374.943.934.943z"/></defs><use xlink:href="#a"/></svg>

<svg xmlns="http://www.w3.org/2000/svg" viewBox="0 0 28 23"><path id="a" d="M11.11,2.83A3.73,3.73,0,0,0,7.47,0,3.81,3.81,0,0,0,3.83,2.83H0V4.72H3.83A3.73,3.73,0,0,0,7.47,7.55a3.81,3.81,0,0,0,3.64-2.83H28V2.83ZM7.47,4.72a.89.89,0,0,1-.93-.94.89.89,0,0,1,.93-.94.89.89,0,0,1,.93.94A.89.89,0,0,1,7.47,4.72ZM20.53,7.55a3.81,3.81,0,0,1,3.64,2.83H28v1.89H24.17a3.81,3.81,0,0,1-3.64,2.83,3.73,3.73,0,0,1-3.64-2.83H0V10.38H16.89a3.81,3.81,0,0,1,3.64-2.83Zm0,4.72a.89.89,0,0,0,.93-.94.93.93,0,1,0-1.87,0A.89.89,0,0,0,20.53,12.27ZM7.47,15.1a3.82,3.82,0,0,1,3.64,2.83H28v1.89H11.11a3.82,3.82,0,0,1-3.64,2.83,3.73,3.73,0,0,1-3.64-2.83H0V17.93H3.83A3.81,3.81,0,0,1,7.47,15.1Zm0,4.72a.94.94,0,0,0,0-1.89.94.94,0,0,0,0,1.89Z"/></svg>
